X:968
T:Shield's Hornpipe
S:LP, Jackie Roche, Irish Violin (1958)
Z:Nigel Gatherer
L:1/8
M:4/4
K:D
A>G | F>GE>F D>EF>G | A>BG>B A2 d>e | f2 (3ef^g a>fe>c | d>BA>F G2
A>G | (3FGF (3EFE D>EF>G | A>BG>B A2 d>e | f2 (3ef^g a>fe>c | d2 d>c d2 :|
ze | f>ef>^g a>=ge>g | f>ef>^g a2 e>^g | a>=ge>c d>fe>c | d>cA>F G2
a>g | f>ef>^g a>=ge>g | f>ef>^g a2 (3ef^g | a>=ge>c d>fe>c | d2 (3edc d2 :|
<end>
<start>
